X: 24485
T: Lucy Campbell
R: reel
M: 4/4
K: Dmajor
A2FA A2dB|ADFA BEE2|ADFA defe|dBAF ADD2|
ADFD A2dB|ADFA BEE2|DEFA defe|dBAF ADD2||
dBAB defe|d2cA BEE2|dBAB defe|dBAF ADD2|
dBAB defe|dBB2 gBB2|dBAB defe|dBAF ADD2||
a3f defg|a2fa bee2|a2af defe|dBAF ADD2|
a3f defg|a2fa beef|g2ge f2fe|dBAF ADD2||
dff2 dfef|dfef afef|dffe f2fe|dBAF ADD2|
dff2 dfef|dfef afef|g2ge f2fe|dBAF ADD2||

